Catalina-dark/actions/22/kdenlive-select-images.svg

<svg viewBox="0 0 22 22" xmlns="http://www.w3.org/2000/svg">
<defs>
<style id="current-color-scheme" type="text/css">.ColorScheme-Text {
        color:#f2f2f2
      }</style>
</defs>
<path class="ColorScheme-Text" d="m3.8887 3c-0.49244 0-0.88867 0.35758-0.88867 0.80078v14.398c0 0.44319 0.39623 0.80078 0.88867 0.80078h14.223c0.49244 0 0.88867-0.35759 0.88867-0.80078v-14.398c0-0.4432-0.39623-0.80078-0.88867-0.80078h-14.223zm1.3242 2h11.574c0.33635 0 0.60937 0.27276 0.60937 0.60937v10.781c0 0.33632-0.27278 0.60938-0.60937 0.60938h-11.574c-0.33634 0-0.60937-0.27276-0.60937-0.60938v-10.781c0-0.33631 0.27279-0.60937 0.60937-0.60937zm7.6621 2.1543c-0.77185 0-1.3965 0.62625-1.3965 1.3984 0 0.77218 0.62463 1.3984 1.3965 1.3984 0.77162 0 1.3984-0.62626 1.3984-1.3984 0-0.77219-0.62682-1.3984-1.3984-1.3984zm-3.8106 2.8516c-0.13383 0.0124-0.25883 0.10498-0.3457 0.27734l-2.3984 4.7539c-0.17398 0.34472-3e-3 0.625 0.38282 0.625h8.793c0.38597 0 0.51962-0.25748 0.29883-0.57422l-1.5273-2.1836c-0.22126-0.31631-0.62148-0.35097-0.89258-0.0762l-0.58984 0.59961c-0.27134 0.27474-0.68148 0.24812-0.91602-0.0586l-2.4121-3.1543c-0.11726-0.15334-0.25874-0.22143-0.39258-0.20898z" fill="currentColor"/>
</svg>

<svg xmlns="http://www.w3.org/2000/svg" viewBox="0 0 22 22">
  <defs id="defs3051">
    <style type="text/css" id="current-color-scheme">
      .ColorScheme-Text {
        color:#f2f2f2
      }
      </style>
  </defs>
 <path 
     style="fill:currentColor;fill-opacity:1;stroke:none"      
	 class="ColorScheme-Text"
        d="M 3.88867,3 C 3.39623,3 3,3.35758 3,3.80078 L 3,18.19922 C 3,18.64241 3.39623,19 3.88867,19 l 14.22266,0 C 18.60377,19 19,18.64241 19,18.19922 L 19,3.80078 C 19,3.35758 18.60377,3 18.11133,3 L 3.88867,3 Z m 1.32422,2 11.57422,0 c 0.33635,0 0.60937,0.27276 0.60937,0.60937 l 0,10.78125 C 17.39648,16.72694 17.1237,17 16.78711,17 L 5.21289,17 C 4.87655,17 4.60352,16.72724 4.60352,16.39062 l 0,-10.78125 C 4.60352,5.27306 4.87631,5 5.21289,5 Z M 12.875,7.15429 c -0.77185,0 -1.39648,0.62625 -1.39648,1.39844 0,0.77218 0.62463,1.39844 1.39648,1.39844 0.77162,0 1.39844,-0.62626 1.39844,-1.39844 0,-0.77219 -0.62682,-1.39844 -1.39844,-1.39844 z m -3.81055,2.85157 c -0.13383,0.0124 -0.25883,0.10498 -0.3457,0.27734 l -2.39844,4.75391 c -0.17398,0.34472 -0.003,0.625 0.38282,0.625 l 4.29687,0 4.49609,0 c 0.38597,0 0.51962,-0.25748 0.29883,-0.57422 l -1.52734,-2.1836 C 14.04632,12.58798 13.6461,12.55332 13.375,12.82809 l -0.58984,0.59961 c -0.27134,0.27474 -0.68148,0.24812 -0.91602,-0.0586 L 9.45703,10.2148 C 9.33977,10.06146 9.19829,9.99337 9.06445,10.00582 Z"
     />
</svg>
